icons/entity/icon_present_xxl_black.svg

<svg xmlns="http://www.w3.org/2000/svg" width="48" height="48" viewBox="0 0 48 48">
  <g fill="none">
    <polygon points="0 0 48 0 48 48 0 48"/>
    <g fill="#0B1F35" transform="translate(4 2)">
      <polygon points="25 32.4 20.5 27.4 16 32.4 16 14.4 25 14.4" opacity=".3"/>
      <path fill-rule="nonzero" d="M39 43L39 25 41 25 41 14 0 14 0 25 2 25 2 43 39 43zM1 15L40 15 40 24 33 24 33 25 38 25 38 42 3 42 3 25 8 25 8 24 1 24 1 15zM33.6 11.6L34.1 12.4C35.9870904 11.2331145 37.1826444 9.21561721 37.3 7 37.4744852 5.13792198 36.7276393 3.30814964 35.3 2.1 34.0211392 1.03254502 32.3484105.559817354 30.7.8 27.5 1.2 24.1 4 20.4 9 16.7 4 13.3 1.2 10.1.8 8.45017318.537010889 6.76813035 1.01237082 5.5 2.1 4.11007162 3.33518357 3.37137205 5.14499752 3.5 7 3.65461744 9.20416378 4.84084928 11.20593 6.7 12.4L7.2 11.6C5.60595621 10.581754 4.5723225 8.88364152 4.4 7 4.32031577 5.42603068 4.98737646 3.90661469 6.2 2.9 7.24902085 2.00296568 8.63400941 1.60204794 10 1.8 13 2.2 16.4 5 20 10.2L20.4 10.8 20.8 10.2C24.5 5 27.8 2.2 30.8 1.8 32.1659906 1.60204794 33.5509792 2.00296568 34.6 2.9 35.7996323 3.90294349 36.4032081 5.4496066 36.2 7 36.1919973 8.88107578 35.2074532 10.6229614 33.6 11.6z"/>
    </g>
  </g>
</svg>

<svg xmlns="http://www.w3.org/2000/svg" width="41" height="43" viewBox="0 0 41 43"><g fill="none" fill-rule="evenodd"><path d="M-4-2h48v48H-4z"/><path fill="#0B1F35" d="M25 32.4l-4.5-5-4.5 5v-18h9z" opacity=".3"/><path fill="#0B1F35" d="M39 43V25h2V14H0v11h2v18h37zM1 15h39v9h-7v1h5v17H3V25h5v-1H1v-9zm32.6-3.4l.5.8c1.9-1.2 3.1-3.2 3.2-5.4.1-2-.6-3.8-2-4.9C34 1 32.4.6 30.7.8 27.5 1.2 24.1 4 20.4 9 16.7 4 13.3 1.2 10.1.8 8.5.5 6.9 1 5.5 2.1c-1.4 1.2-2.1 3-2 4.9.1 2.2 1.4 4.2 3.2 5.4l.5-.8c-1.6-1-2.6-2.7-2.8-4.6 0-1.7.6-3.2 1.8-4.1C7.3 2 8.6 1.6 10 1.8c3 .4 6.4 3.2 10 8.4l.4.6.4-.6c3.7-5.2 7-8 10-8.4 1.4-.2 2.7.2 3.8 1.1 1.2.9 1.7 2.4 1.6 4.1 0 1.9-1 3.6-2.6 4.6z"/></g></svg>
